X:1
T:Title
%%score 1 { 2 | 3 }
L:1/8
Q:1/4=160
M:6/4
K:Db
V:1 treble nm="Grand Piano, Soprano"
V:2 bass nm="Choir Pad, Jesus Believes in You"
V:3 bass 
V:1
 [Fd]2 [Fc]2 [FB]2 [FA]4 [FB]2 | [DF]6- [DF]3- [DF]/ z/ [DF]2 | [CA]4 [CG]2 [CF]4 [CE]2 | %3
w: By~Samuel~William~Beazley * * * *|||
 D6- D3- D/ z/ DD | [DG]4 [DA]2 [DB]4 [Dd]2 | [DA]6- [DA]3- [DA]/ z/ [DA]2 | %6
w: |||
 [DB]4 [DB]2 [Ec]4 [Ed]2 | [Ec]12 | [Fd]4 [Fc]2 [FB]4 [FA]2 | %9
w: |||
 [FB]2 [DF]4- [DF]3- [DF]/ z/ [DF][DF] | [CA]4 [CG]2 [CF]4 [CE]2 | D6- D3- D/ z/ [_CD]2 | %12
w: |||
 [B,G]4 [DB]2 [Dd]4 [DB]2 | [DA]2 [Fd]4- [Fd]3- [Fd]/ z/ D2 | [DF]4 [DA]2 [CF]4 [CE]2 | D12 | %16
w: ||||
 [FA]2 [DF]2 [GB]2 [FA]4 [Fd]2 | [Gc]12 | [Gc]2 [GA]2 [GB]2 [Gc]4 [Ge]2 | [Fd]12 | %20
w: ||||
 [Af]2 [Ae]2 [Ad]2 [GB]4 [Gd]2 | [Fd]6- [Fd]3- [Fd]/ z/ D2 | [DF]4 [DA]2 [CF]4 [CE]2 | D12 |] %24
w: ||||
V:2
 A,2 A,2 A,2 D4 D2 | A,6- A,3- A,/ z/ A,2 | A,4 B,2 A,4 G,2 | F,6- F,3- F,/ z/ F,F, | %4
 G,4 F,2 G,4 G,2 | F,6- F,3- F,/ z/ A,2 | =G,4 G,2 A,4 B,2 | A,12 | A,4 A,2 D4 D2 | %9
 D2 A,4- A,3- A,/ z/ A,A, | A,4 B,2 A,4 G,2 | F,6- F,3- F,/ z/ F,2 | G,4 G,2 G,4 G,2 | %13
 F,2 A,4- A,3- A,/ z/ F,2 | A,4 F,2 A,4 G,2 | F,12 | D2 A,2 D2 D4 A,2 | A,12 | E2 C2 D2 E4 C2 | %19
 D12 | D2 C2 D2 D4[K:bass] B,2 | A,6- A,3- A,/ z/ F,2 | A,4 F,2 A,4 G,2 | F,12 |] %24
V:3
 D,2 D,2 D,2 D,4 D,2 | D,6- D,3- D,/ z/ D,2 | A,,4 A,,2 A,,4 A,,2 | D,6- D,3- D,/ z/ D,D, | %4
 B,,4 A,,2 G,,4 B,,2 | D,6- D,3- D,/ z/ F,2 | E,4 E,2 E,4 E,2 | A,,12 | D,4 D,2 D,4 D,2 | %9
 D,2 D,4- D,3- D,/ z/ D,D, | A,,4 A,,2 A,,4 =A,,2 | B,,6- B,,3- B,,/ z/ A,,2 | %12
 G,,4 G,,2 B,,4 G,,2 | D,2 D,4- D,3- D,/ z/ D,2 | A,,4 A,,2 A,,4 A,,2 | D,12 | %16
 D,2 D,2 D,2 D,4 D,2 | E,12 | A,2 A,2 A,2 A,4 A,2 | D,12 | D,2 E,2 F,2 G,4 G,2 | %21
 D,6- D,3- D,/ z/ D,2 | A,,4 A,,2 A,,4 A,,2 | D,12 |] %24

